static/images/icons/pelican.svg

<svg height="64" viewBox="0 0 64 64" width="64" xmlns="http://www.w3.org/2000/svg" xmlns:xlink="http://www.w3.org/1999/xlink"><linearGradient id="a" x1="100%" x2="69.603%" y1="36.861%" y2="36.861%"><stop offset="0" stop-color="#1abad4"/><stop offset="1" stop-color="#53c4c6"/></linearGradient><g fill="none" fill-rule="evenodd"><path d="m3.06314776.3c18.31838034.1859778 29.34281154.2826749 33.07329374.29009129l1.0559605.00089306c7.7521741.00892771 23.9017546.53751061 24.1474483 16.97704555.2481755 16.6055908-25.910529 19.3514404-27.3608625 19.8863525-.4834446.178304-1.0889269 1.0381402-1.7396045 2.2955955l-.1142504.2239297-.762682.3849117c-2.8910639 1.43222-5.8463942 2.6035601-8.8659909 3.5140201-3.6995738 1.1154848-6.846629 1.9228688-9.4410321 2.4220966 2.0330446-6.7404604 4.214069-14.8441528 6.3120037-16.7748798 3.0386963-2.7965088 8.8656006-1.1695556 10.6125489-.829956 1.7469482.3395996 4.9101562 1.3602295 9.5511474-1.2922363 4.6409912-2.6524659 3.1814279-5.767212 3.1814279-6.1990479v-.806848c1.8995559.4233642 3.7883801.6923135 5.6664725.806848 2.8171387.1718018 5.404419 0 5.733208 0 .2191927 0 .5290112.0856533.9294555.25696.2019418-.099806-.1616055-.6957295-1.090642-1.7877705-1.3935547-1.6380616-4.2242432-1.5087891-7.1175537-3.109375-1.1197247-.6194343-2.4368897-1.9346924-3.2830811-2.5339905s-2.4591005-.6163522-3.6237793-.7086853c-1.3611653-.1079102-3.3437147.1283183-5.9476479.7086853.2818304 1.9543757 1.0653644 3.4560216 2.350602 4.5049377l.3632204.2969474c1.592027 1.3056431 1.7602822 1.5263518 1.271057 2.2004891-.5241699.7222901-1.6785889.774292-3.2926026-.2120361-1.1510754-.7034253-1.437324-1.998272-2.3437808-3.6948242-.7559103-1.4147846-1.6800874-2.7482395-2.654256-3.9764739-1.8588055-2.343587-2.8372283-2.8599317-9.7451465-3.8822174l-.0696373-.01040695c-3.5811314-1.34360588-7.0282809-2.56344746-9.3314054-3.66953701-2.27683776-1.09346517-4.76480137-2.85397138-7.46389084-5.28151864zm9.63954274 20.7081807c1.2109768.4293329 2.1750702.7093331 2.8922802.8400005 2.6070557.4749756 5.1875.3058667 7.1851807.7581787 1.3317871.3015414 2.3263165 1.4230321 2.9835884 3.3644721-.6188577-.2795919-1.2959729-.4551021-2.0313454-.5265307-2.9239952-.6882529-5.3377498-1.4611803-7.2426483-2.3172317-1.1925432-.5359226-2.4545607-1.2424836-3.7870556-2.1188889zm9.2884573-2.1351807-.481531-.1885548c-3.0296724-1.1870814-5.3548588-2.1007644-6.9755592-2.7410491-1.7460076-.6897894-4.0508111-1.9584421-6.91629445-3.8073007-.14916045-.2327783-.29467315-.4730448-.43594339-.7198714 3.09009614 1.3222317 5.39792544 2.1174625 6.92348804 2.3856926 3.426256.602417 5.7926135.7753731 7.8673484 1.3571777 3.6403262 1.0208334 5.8737433 3.0908259 6.7002516 6.2099777-.7485727-.6817332-2.0524244-1.3365646-3.9115553-1.9644943-1.0323539-.3486821-2.5301115-.5079874-2.7710716-.5310435l-.0121331-.0015342-.009-.001z" fill="url(#a)"/><path d="m32.1251329 39.9739076-.1220074.2458375-.3227985.2794764c-3.2693641 2.7889836-6.6270265 5.1439917-10.0729872 7.0650242-3.7850834 2.1100844-7.2390487 3.5428181-10.3621213 4.2980546.7678572-2.256262 1.3712603-4.1120501 1.8102094-5.5673643 2.5944031-.4992278 5.7414583-1.3066118 9.4410321-2.4220966 3.0195967-.91046 5.974927-2.0818001 8.8659909-3.5140201zm-21.0921131-19.8273956c.5217197.3273783 1.0782766.6146012 1.6696707.8616687 1.3324949.8764053 2.5945124 1.5829663 3.7870556 2.1188889 1.9055579.8563477 4.3203241 1.6295138 7.2442988 2.3194985-.3757611-.0388097-.7693037-.0482086-1.1782588-.0300721-1.8038938.08-6.4107666.7179401-9.0900879-1.6206829-1.8072621-1.5774536-2.4326784-2.8315053-2.4326784-3.6493011zm-3.41525665-8.0104166c2.86548335 1.8488586 5.17028685 3.1175113 6.91629445 3.8073007 1.7060004.6739838 4.1925948 1.6509022 7.459783 2.9307551-1.8550881-.168071-3.9490522-.1778753-7.1852468-1.1679377-3.0034508-.9188581-5.40039435-2.7755642-7.19083065-5.5701181zm-4.55461539-11.8360954c2.69908947 2.42754726 5.18705308 4.18805347 7.46389084 5.28151864 2.3031245 1.10608955 5.750274 2.32593113 9.3314054 3.66953701-1.0355171-.15276792-2.204994-.31729339-3.5297086-.50101895-6.72213325-.93229709-11.08819585-3.48486328-13.26558764-8.4500367z" fill="#8ec8cc"/><path d="m32.0031255 40.2197451c-1.2415342 2.5357375-2.6101756 6.3561724-3.5954107 9.5750914-1.5722656 5.1368408-2.6209716 8.4366455-6.3388671 11.3193359-3.7178956 2.8826905-19.5688477 2.8692627-19.5688477 2.1956788 0-.673584 2.97216595-1.7178595 4.18054199-3.0662842 1.53739913-1.7155811 2.74768574-4.2188399 3.75000001-6.3828125.2665853-.5755513.5383731-1.2491724.8146765-1.9984542 3.1230726-.7552365 6.5770379-2.1879702 10.3621213-4.2980546 3.4459607-1.9210325 6.8036231-4.2760406 10.0729872-7.0650242z" fill="#0ea0c4"/></g></svg>

<svg xmlns="http://www.w3.org/2000/svg" width="64" height="64" viewBox="0 0 64 64">
  <defs>
    <linearGradient id="pelican-a" x1="100%" x2="69.603%" y1="36.861%" y2="36.861%">
      <stop offset="0%" stop-color="#1ABAD4"/>
      <stop offset="100%" stop-color="#53C4C6"/>
    </linearGradient>
  </defs>
  <g fill="none" fill-rule="evenodd">
    <path fill="url(#pelican-a)" d="M3.06314776,0.3 C21.3815281,0.485977804 32.4059593,0.582674901 36.1364415,0.590091291 L37.192402,0.590984353 C44.9445761,0.599912057 61.0941566,1.12849496 61.3398503,17.5680299 C61.5880258,34.1736207 35.4293213,36.9194703 33.9789878,37.4543824 C33.4955432,37.6326864 32.8900609,38.4925226 32.2393833,39.7499779 L32.1251329,39.9739076 L31.3624509,40.3588193 C28.471387,41.7910393 25.5160567,42.9623794 22.49646,43.8728394 C18.7968862,44.9883242 15.649831,45.7957082 13.0554279,46.294936 C15.0884725,39.5544756 17.2694969,31.4507832 19.3674316,29.5200562 C22.4061279,26.7235474 28.2330322,28.3505006 29.9799805,28.6901002 C31.7269287,29.0296998 34.8901367,30.0503297 39.5311279,27.3978639 C44.1721191,24.745398 42.7125558,21.6306519 42.7125558,21.198816 L42.7125558,20.391968 C44.6121117,20.8153322 46.5009359,21.0842815 48.3790283,21.198816 C51.196167,21.3706178 53.7834473,21.198816 54.1122363,21.198816 C54.331429,21.198816 54.6412475,21.2844693 55.0416918,21.455776 C55.2436336,21.35597 54.8800863,20.7600465 53.9510498,19.6680055 C52.5574951,18.0299439 49.7268066,18.1592164 46.8334961,16.5586305 C45.7137714,15.9391962 44.3966064,14.6239381 43.550415,14.02464 C42.7042236,13.4253419 41.0913145,13.4082878 39.9266357,13.3159547 C38.5654704,13.2080445 36.582921,13.444273 33.9789878,14.02464 C34.2608182,15.9790157 35.0443522,17.4806616 36.3295898,18.5295777 L36.6928102,18.8265251 C38.2848372,20.1321682 38.4530924,20.3528769 37.9638672,21.0270142 C37.4396973,21.7493043 36.2852783,21.8013062 34.6712646,20.8149781 C33.5201892,20.1115528 33.2339406,18.8167061 32.3274838,17.1201539 C31.5715735,15.7053693 30.6473964,14.3719144 29.6732278,13.14368 C27.8144223,10.800093 26.8359995,10.2837483 19.9280813,9.2614626 L19.858444,9.25105565 C16.2773126,7.90744977 12.8301631,6.68760819 10.5270386,5.58151864 C8.25020084,4.48805347 5.76223723,2.72754726 3.06314776,0.3 Z M12.7026905,21.0081807 C13.9136673,21.4375136 14.8777607,21.7175138 15.5949707,21.8481812 C18.2020264,22.3231568 20.7824707,22.1540479 22.7801514,22.6063599 C24.1119385,22.9079013 25.1064679,24.029392 25.7637398,25.970832 C25.1448821,25.6912401 24.4677669,25.5157299 23.7323944,25.4443013 C20.8083992,24.7560484 18.3946446,23.983121 16.4897461,23.1270696 C15.2972029,22.591147 14.0351854,21.884586 12.7026905,21.0081807 Z M21.9911478,18.873 L21.5096168,18.6844452 C18.4799444,17.4973638 16.154758,16.5836808 14.5340576,15.9433961 C12.78805,15.2536067 10.4832465,13.984954 7.61776315,12.1360954 C7.4686027,11.9033171 7.32309,11.6630506 7.18181976,11.416224 C10.2719159,12.7384557 12.5797452,13.5336865 14.1053078,13.8019166 C17.5315638,14.4043336 19.8979213,14.5772897 21.9726562,15.1590943 C25.6129824,16.1799277 27.8463995,18.2499202 28.6729078,21.369072 C27.9243351,20.6873388 26.6204834,20.0325074 24.7613525,19.4045777 C23.7289986,19.0558956 22.231241,18.8965903 21.9902809,18.8735342 L21.9781478,18.872 L21.9691478,18.871 L21.9911478,18.873 Z"/>
    <path fill="#8EC8CC" d="M32.1251329,39.9739076 L32.0031255,40.2197451 L31.680327,40.4992215 C28.4109629,43.2882051 25.0533005,45.6432132 21.6073398,47.5642457 C17.8222564,49.6743301 14.3682911,51.1070638 11.2452185,51.8623003 C12.0130757,49.6060383 12.6164788,47.7502502 13.0554279,46.294936 C15.649831,45.7957082 18.7968862,44.9883242 22.49646,43.8728394 C25.5160567,42.9623794 28.471387,41.7910393 31.3624509,40.3588193 L32.1251329,39.9739076 Z M11.0330198,20.146512 C11.5547395,20.4738903 12.1112964,20.7611132 12.7026905,21.0081807 C14.0351854,21.884586 15.2972029,22.591147 16.4897461,23.1270696 C18.395304,23.9834173 20.8100702,24.7565834 23.7340449,25.4465681 C23.3582838,25.4077584 22.9647412,25.3983595 22.5557861,25.416496 C20.7518923,25.496496 16.1450195,26.1344361 13.4656982,23.7958131 C11.6584361,22.2183595 11.0330198,20.9643078 11.0330198,20.146512 Z M7.61776315,12.1360954 C10.4832465,13.984954 12.78805,15.2536067 14.5340576,15.9433961 C16.240058,16.6173799 18.7266524,17.5942983 21.9938406,18.8741512 C20.1387525,18.7060802 18.0447884,18.6962759 14.8085938,17.7062135 C11.805143,16.7873554 9.40819945,14.9306493 7.61776315,12.1360954 Z M3.06314776,0.3 C5.76223723,2.72754726 8.25020084,4.48805347 10.5270386,5.58151864 C12.8301631,6.68760819 16.2773126,7.90744977 19.858444,9.25105565 C18.8229269,9.09828773 17.65345,8.93376226 16.3287354,8.7500367 C9.60660215,7.81773961 5.24053955,5.26517342 3.06314776,0.3 Z"/>
    <path fill="#0EA0C4" d="M32.0031255,40.2197451 C30.7615913,42.7554826 29.3929499,46.5759175 28.4077148,49.7948365 C26.8354492,54.9316773 25.7867432,58.231482 22.0688477,61.1141724 C18.3509521,63.9968629 2.5,63.9834351 2.5,63.3098512 C2.5,62.6362672 5.47216595,61.5919917 6.68054199,60.243567 C8.21794112,58.5279859 9.42822773,56.0247271 10.430542,53.8607545 C10.6971273,53.2852032 10.9689151,52.6115821 11.2452185,51.8623003 C14.3682911,51.1070638 17.8222564,49.6743301 21.6073398,47.5642457 C25.0533005,45.6432132 28.4109629,43.2882051 31.680327,40.4992215 L32.0031255,40.2197451 Z"/>
  </g>
</svg>
